packages/core/src/svgs/lyx.svg

<svg width="24" height="24" viewBox="0 0 24 24" fill="none" xmlns="http://www.w3.org/2000/svg">
<g clip-path="url(#clip0_31_13458)">
<path d="M0 0H24V24H0V0Z" fill="#F0F3FA"/>
<path d="M13.2471 4.62858L17.61 7.20429C17.9921 7.43385 18.308 7.75878 18.5266 8.14722C18.7452 8.53566 18.8591 8.97427 18.8571 9.42001V14.5757C18.8591 15.0215 18.7452 15.4601 18.5266 15.8485C18.308 16.2369 17.9921 16.5619 17.61 16.7914L13.2429 19.3714C12.8655 19.5955 12.4346 19.7138 11.9957 19.7138C11.5568 19.7138 11.126 19.5955 10.7486 19.3714L6.38572 16.7914C6.00442 16.5614 5.68942 16.2362 5.47155 15.8478C5.25369 15.4594 5.14042 15.021 5.14286 14.5757V9.42001C5.14087 8.97427 5.25478 8.53566 5.47342 8.14722C5.69206 7.75878 6.00791 7.43385 6.39 7.20429L10.7529 4.63286C11.1303 4.40878 11.5611 4.29053 12 4.29053C12.4389 4.29053 12.8697 4.40878 13.2471 4.63286V4.62858ZM14.0614 14.5371L15.3043 12.4629C15.4714 12.1757 15.4714 11.8243 15.2957 11.5372L14.0614 9.46286C13.9757 9.32044 13.8543 9.20284 13.7093 9.12167C13.5642 9.0405 13.4005 8.99856 13.2343 9.00001H10.7614C10.4186 9.00001 10.1057 9.17572 9.93429 9.46286L8.7 11.5372C8.61615 11.677 8.57186 11.837 8.57186 12C8.57186 12.1631 8.61615 12.323 8.7 12.4629L9.93858 14.5371C10.11 14.8243 10.4229 15 10.7614 15H13.2386C13.5814 15 13.8943 14.8243 14.0657 14.5371H14.0614Z" fill="#FE005B"/>
</g>
<defs>
<clipPath id="clip0_31_13458">
<rect width="24" height="24" fill="white"/>
</clipPath>
</defs>
</svg>

<svg xmlns="http://www.w3.org/2000/svg" width="24" height="24" fill="none" viewBox="0 0 24 24"><g clip-path="url(#a)"><path fill="#F0F3FA" d="M0 0h24v24H0z"/><path fill="#FE005B" d="m13.247 4.629 4.363 2.575a2.57 2.57 0 0 1 1.247 2.216v5.156a2.57 2.57 0 0 1-1.247 2.215l-4.367 2.58a2.44 2.44 0 0 1-2.494 0l-4.363-2.58a2.57 2.57 0 0 1-1.243-2.215V9.42A2.57 2.57 0 0 1 6.39 7.204l4.363-2.571a2.44 2.44 0 0 1 2.494 0zm.814 9.908 1.243-2.074a.9.9 0 0 0-.008-.926L14.06 9.463A.96.96 0 0 0 13.234 9h-2.473a.96.96 0 0 0-.827.463L8.7 11.537a.9.9 0 0 0 0 .926l1.239 2.074a.96.96 0 0 0 .822.463h2.478a.96.96 0 0 0 .827-.463z"/></g><defs><clipPath id="a"><path fill="#fff" d="M0 0h24v24H0z"/></clipPath></defs></svg>
